public/resources/images/icon-social-dr.svg

<svg data-name="Layer 1" xmlns="http://www.w3.org/2000/svg" viewBox="0 0 32 32"><path d="M8.316 23.055a10.189 10.189 0 01-2.58-6.883 1.984 1.984 0 01.014-.25 2 2 0 00.012-.251q.467.027 1.425.026a29.323 29.323 0 009.135-1.376q.342.7.714 1.582a12.168 12.168 0 00-4.988 2.676 14.259 14.259 0 00-3.732 4.476zm7.122-10.528a25.272 25.272 0 00-4.1-5.627 10.036 10.036 0 00-3.329 2.777A10.737 10.737 0 006.056 13.6q.542.051 1.6.049a26.471 26.471 0 007.782-1.122zm7.067-4.377a9.853 9.853 0 00-6.533-2.4 9.32 9.32 0 00-2.506.352 26.491 26.491 0 014.005 5.678 12.236 12.236 0 005.034-3.63zm-9.388 12.005a14.165 14.165 0 00-3.4 4.252 9.9 9.9 0 009.875 1.5 37.362 37.362 0 00-1.917-8.277 10.408 10.408 0 00-4.558 2.525zm6.077-4.57q1.82-.176 3.955-.176 1.523 0 3.02.076a10.137 10.137 0 00-2.4-6.058 12.171 12.171 0 01-5.405 4.132q.364.803.83 2.026zm.617 1.744a36.608 36.608 0 011.694 7.6 10.356 10.356 0 003.169-3.284 10.213 10.213 0 001.473-4.326q-1.792-.124-3.266-.125-1.351.006-3.07.135z" fill="#FFF"/></svg>

<svg id="Layer_1" data-name="Layer 1" xmlns="http://www.w3.org/2000/svg" viewBox="0 0 32 32">
  <title>icon-social-dr</title>
  <path d="M8.316,23.055a10.189,10.189,0,0,1-2.58-6.883,1.984,1.984,0,0,1,.014-.25,2,2,0,0,0,.012-.251q.467.027,1.425.026a29.323,29.323,0,0,0,9.135-1.376q.342.7.714,1.582a12.168,12.168,0,0,0-4.988,2.676A14.259,14.259,0,0,0,8.316,23.055Zm7.122-10.528a25.272,25.272,0,0,0-4.1-5.627A10.036,10.036,0,0,0,8.009,9.677,10.737,10.737,0,0,0,6.056,13.6q.542.051,1.6.049A26.471,26.471,0,0,0,15.438,12.527ZM22.505,8.15a9.853,9.853,0,0,0-6.533-2.4,9.32,9.32,0,0,0-2.506.352,26.491,26.491,0,0,1,4.005,5.678A12.236,12.236,0,0,0,22.505,8.15ZM13.117,20.155a14.165,14.165,0,0,0-3.4,4.252,9.9,9.9,0,0,0,9.875,1.5,37.362,37.362,0,0,0-1.917-8.277A10.408,10.408,0,0,0,13.117,20.155Zm6.077-4.57q1.82-.176,3.955-.176,1.523,0,3.02.076a10.137,10.137,0,0,0-2.4-6.058,12.171,12.171,0,0,1-5.405,4.132Q18.728,14.362,19.194,15.585Zm.617,1.744a36.608,36.608,0,0,1,1.694,7.6,10.356,10.356,0,0,0,3.169-3.284,10.213,10.213,0,0,0,1.473-4.326q-1.792-.124-3.266-.125Q21.53,17.2,19.811,17.329Z" fill="#FFF"/>
</svg>
